src/basic/800/u2192-right.svg

<svg width="16" height="16" viewBox="0 0 16 16" fill="none" xmlns="http://www.w3.org/2000/svg">
<path fill-rule="evenodd" clip-rule="evenodd" d="M13.2929,8.00001l-5.14645,-5.14645l0.7071,-0.70711l6.00005,6l0.3535,0.35356l-0.3535,0.35355l-6.00005,6.00004l-0.7071,-0.7071l5.14645,-5.14649h-13.2929v-1z" fill="black"/>
</svg>

<svg width="16" height="16" viewBox="0 0 16 16" fill="none" xmlns="http://www.w3.org/2000/svg">
<path fill-rule="evenodd" clip-rule="evenodd" d="M13.2929 8.00001L8.14645 2.85356L8.85355 2.14645L14.8536 8.14645L15.2071 8.50001L14.8536 8.85356L8.85355 14.8536L8.14645 14.1465L13.2929 9.00001H0V8.00001H13.2929Z" fill="black"/>
</svg>
